static/icons/basic/bg-tailcall.svg

<svg xmlns="http://www.w3.org/2000/svg" width="1564" height="396" fill="none"><g fill="#121315" opacity=".04"><path d="M127.527 387.536c-17.69 0-32.13-5.415-43.322-16.246-10.831-11.192-16.246-25.993-16.246-44.406V175.255H.809v-56.319h67.15V35.54h68.233v83.396h73.648v56.319h-73.648v139.716c0 10.83 5.054 16.246 15.163 16.246h51.987v56.319zM333.339 395.117c-19.134 0-36.283-3.249-51.446-9.747-15.163-6.86-27.257-16.607-36.282-29.243-8.665-12.997-12.997-28.701-12.997-47.113s4.332-33.756 12.997-46.03c9.025-12.636 21.3-22.023 36.824-28.16 15.885-6.499 33.936-9.748 54.153-9.748h73.649v-15.163c0-12.635-3.972-22.924-11.914-30.867-7.943-8.303-20.578-12.455-37.907-12.455-16.968 0-29.604 3.971-37.908 11.914-8.303 7.581-13.719 17.509-16.246 29.784l-62.817-21.12c4.332-13.719 11.191-26.174 20.578-37.366 9.747-11.552 22.564-20.758 38.449-27.618 16.246-7.22 35.921-10.831 59.027-10.831 35.38 0 63.359 8.845 83.937 26.536 20.578 17.69 30.867 43.322 30.867 76.897v100.184c0 10.83 5.055 16.246 15.163 16.246h21.662v56.319h-45.489c-13.358 0-24.369-3.249-33.034-9.748-8.664-6.498-12.996-15.162-12.996-25.993v-.542H411.32c-1.444 4.333-4.694 10.109-9.748 17.329-5.054 6.86-12.997 12.997-23.827 18.413-10.831 5.415-25.633 8.122-44.406 8.122m11.914-55.236c19.134 0 34.658-5.235 46.571-15.704 12.275-10.831 18.413-25.091 18.413-42.781v-5.416h-68.775c-12.636 0-22.564 2.708-29.784 8.123-7.221 5.416-10.831 12.997-10.831 22.745 0 9.747 3.791 17.69 11.372 23.827 7.582 6.137 18.593 9.206 33.034 9.206M541.355 387.536v-268.6h68.233v268.6zm34.117-300.009c-12.275 0-22.745-3.971-31.409-11.914-8.304-7.942-12.456-18.412-12.456-31.408 0-12.997 4.152-23.467 12.456-31.41C552.727 4.854 563.197.883 575.472.883c12.635 0 23.105 3.971 31.408 11.914 8.304 7.942 12.456 18.412 12.456 31.409 0 12.996-4.152 23.466-12.456 31.408-8.303 7.943-18.773 11.914-31.408 11.914M663.538 387.536V8.463h68.233v379.073zM911.898 395.117c-25.993 0-49.64-5.415-70.94-16.245-20.94-10.831-37.547-26.536-49.821-47.114-12.275-20.578-18.412-45.489-18.412-74.731v-7.582c0-29.243 6.137-54.153 18.412-74.731 12.274-20.578 28.881-36.283 49.821-47.114 21.3-10.83 44.947-16.246 70.94-16.246 25.633 0 47.655 4.513 66.067 13.539 18.412 9.025 33.215 21.481 44.405 37.366 11.55 15.523 19.14 33.214 22.75 53.07l-66.072 14.08c-1.444-10.831-4.693-20.579-9.747-29.243-5.055-8.665-12.275-15.524-21.661-20.578-9.026-5.055-20.398-7.582-34.117-7.582-13.719 0-26.174 3.069-37.366 9.206-10.83 5.777-19.495 14.622-25.993 26.535-6.138 11.553-9.206 25.813-9.206 42.781v5.416c0 16.968 3.068 31.409 9.206 43.322 6.498 11.553 15.163 20.398 25.993 26.535 11.192 5.777 23.647 8.665 37.366 8.665 20.578 0 36.102-5.235 46.572-15.705 10.83-10.83 17.69-24.91 20.578-42.239l66.067 15.704c-4.69 19.134-12.82 36.644-24.37 52.529-11.19 15.524-25.993 27.799-44.405 36.824-18.412 9.026-40.434 13.538-66.067 13.538M1164.76 395.117c-19.13 0-36.28-3.249-51.45-9.747-15.16-6.86-27.25-16.607-36.28-29.243-8.66-12.997-12.99-28.701-12.99-47.113s4.33-33.756 12.99-46.03c9.03-12.636 21.3-22.023 36.83-28.16 15.88-6.499 33.93-9.748 54.15-9.748h73.65v-15.163c0-12.635-3.97-22.924-11.92-30.867-7.94-8.303-20.57-12.455-37.9-12.455-16.97 0-29.61 3.971-37.91 11.914-8.3 7.581-13.72 17.509-16.25 29.784l-62.81-21.12c4.33-13.719 11.19-26.174 20.57-37.366 9.75-11.552 22.57-20.758 38.45-27.618 16.25-7.22 35.92-10.831 59.03-10.831 35.38 0 63.36 8.845 83.94 26.536 20.58 17.69 30.86 43.322 30.86 76.897v100.184c0 10.83 5.06 16.246 15.17 16.246h21.66v56.319h-45.49c-13.36 0-24.37-3.249-33.03-9.748-8.67-6.498-13-15.162-13-25.993v-.542h-10.29c-1.44 4.333-4.69 10.109-9.75 17.329-5.05 6.86-12.99 12.997-23.82 18.413-10.83 5.415-25.64 8.122-44.41 8.122m11.91-55.236c19.14 0 34.66-5.235 46.58-15.704 12.27-10.831 18.41-25.091 18.41-42.781v-5.416h-68.78c-12.63 0-22.56 2.708-29.78 8.123-7.22 5.416-10.83 12.997-10.83 22.745 0 9.747 3.79 17.69 11.37 23.827 7.58 6.137 18.59 9.206 33.03 9.206M1372.78 387.536V8.463h68.23v379.073zM1494.96 387.536V8.463h68.23v379.073z"/></g></svg>

<svg width="1564" height="396" viewBox="0 0 1564 396" fill="none" xmlns="http://www.w3.org/2000/svg">
<g opacity="0.04">
<path d="M127.527 387.536C109.837 387.536 95.3962 382.121 84.2046 371.29C73.3739 360.098 67.9586 345.297 67.9586 326.884V175.255H0.808594V118.936H67.9586V35.5399H136.192V118.936H209.84V175.255H136.192V314.971C136.192 325.801 141.246 331.217 151.355 331.217H203.342V387.536H127.527Z" fill="#121315"/>
<path d="M333.339 395.117C314.205 395.117 297.056 391.868 281.893 385.37C266.73 378.51 254.636 368.763 245.611 356.127C236.946 343.13 232.614 327.426 232.614 309.014C232.614 290.602 236.946 275.258 245.611 262.984C254.636 250.348 266.911 240.961 282.435 234.824C298.32 228.325 316.371 225.076 336.588 225.076H410.237V209.913C410.237 197.278 406.265 186.989 398.323 179.046C390.38 170.743 377.745 166.591 360.416 166.591C343.448 166.591 330.812 170.562 322.508 178.505C314.205 186.086 308.789 196.014 306.262 208.289L243.445 187.169C247.777 173.45 254.636 160.995 264.023 149.803C273.77 138.251 286.587 129.045 302.472 122.185C318.718 114.965 338.393 111.354 361.499 111.354C396.879 111.354 424.858 120.199 445.436 137.89C466.014 155.58 476.303 181.212 476.303 214.787V314.971C476.303 325.801 481.358 331.217 491.466 331.217H513.128V387.536H467.639C454.281 387.536 443.27 384.287 434.605 377.788C425.941 371.29 421.609 362.626 421.609 351.795V351.253H411.32C409.876 355.586 406.626 361.362 401.572 368.582C396.518 375.442 388.575 381.579 377.745 386.995C366.914 392.41 352.112 395.117 333.339 395.117ZM345.253 339.881C364.387 339.881 379.911 334.646 391.824 324.177C404.099 313.346 410.237 299.086 410.237 281.396V275.98H341.462C328.826 275.98 318.898 278.688 311.678 284.103C304.457 289.519 300.847 297.1 300.847 306.848C300.847 316.595 304.638 324.538 312.219 330.675C319.801 336.812 330.812 339.881 345.253 339.881Z" fill="#121315"/>
<path d="M541.355 387.536V118.936H609.588V387.536H541.355ZM575.472 87.527C563.197 87.527 552.727 83.5558 544.063 75.6133C535.759 67.6708 531.607 57.2012 531.607 44.2045C531.607 31.2077 535.759 20.738 544.063 12.7956C552.727 4.85308 563.197 0.881836 575.472 0.881836C588.107 0.881836 598.577 4.85308 606.88 12.7956C615.184 20.738 619.336 31.2077 619.336 44.2045C619.336 57.2012 615.184 67.6708 606.88 75.6133C598.577 83.5558 588.107 87.527 575.472 87.527Z" fill="#121315"/>
<path d="M663.538 387.536V8.46329H731.771V387.536H663.538Z" fill="#121315"/>
<path d="M911.898 395.117C885.905 395.117 862.258 389.702 840.958 378.872C820.018 368.041 803.411 352.336 791.137 331.758C778.862 311.18 772.725 286.269 772.725 257.027V249.445C772.725 220.202 778.862 195.292 791.137 174.714C803.411 154.136 820.018 138.431 840.958 127.6C862.258 116.77 885.905 111.354 911.898 111.354C937.531 111.354 959.553 115.867 977.965 124.893C996.377 133.918 1011.18 146.374 1022.37 162.259C1033.92 177.782 1041.51 195.473 1045.12 215.329L979.048 229.409C977.604 218.578 974.355 208.83 969.301 200.166C964.246 191.501 957.026 184.642 947.64 179.588C938.614 174.533 927.242 172.006 913.523 172.006C899.804 172.006 887.349 175.075 876.157 181.212C865.327 186.989 856.662 195.834 850.164 207.747C844.026 219.3 840.958 233.56 840.958 250.528V255.944C840.958 272.912 844.026 287.353 850.164 299.266C856.662 310.819 865.327 319.664 876.157 325.801C887.349 331.578 899.804 334.466 913.523 334.466C934.101 334.466 949.625 329.231 960.095 318.761C970.925 307.931 977.785 293.851 980.673 276.522L1046.74 292.226C1042.05 311.36 1033.92 328.87 1022.37 344.755C1011.18 360.279 996.377 372.554 977.965 381.579C959.553 390.605 937.531 395.117 911.898 395.117Z" fill="#121315"/>
<path d="M1164.76 395.117C1145.63 395.117 1128.48 391.868 1113.31 385.37C1098.15 378.51 1086.06 368.763 1077.03 356.127C1068.37 343.13 1064.04 327.426 1064.04 309.014C1064.04 290.602 1068.37 275.258 1077.03 262.984C1086.06 250.348 1098.33 240.961 1113.86 234.824C1129.74 228.325 1147.79 225.076 1168.01 225.076H1241.66V209.913C1241.66 197.278 1237.69 186.989 1229.74 179.046C1221.8 170.743 1209.17 166.591 1191.84 166.591C1174.87 166.591 1162.23 170.562 1153.93 178.505C1145.63 186.086 1140.21 196.014 1137.68 208.289L1074.87 187.169C1079.2 173.45 1086.06 160.995 1095.44 149.803C1105.19 138.251 1118.01 129.045 1133.89 122.185C1150.14 114.965 1169.81 111.354 1192.92 111.354C1228.3 111.354 1256.28 120.199 1276.86 137.89C1297.44 155.58 1307.72 181.212 1307.72 214.787V314.971C1307.72 325.801 1312.78 331.217 1322.89 331.217H1344.55V387.536H1299.06C1285.7 387.536 1274.69 384.287 1266.03 377.788C1257.36 371.29 1253.03 362.626 1253.03 351.795V351.253H1242.74C1241.3 355.586 1238.05 361.362 1232.99 368.582C1227.94 375.442 1220 381.579 1209.17 386.995C1198.34 392.41 1183.53 395.117 1164.76 395.117ZM1176.67 339.881C1195.81 339.881 1211.33 334.646 1223.25 324.177C1235.52 313.346 1241.66 299.086 1241.66 281.396V275.98H1172.88C1160.25 275.98 1150.32 278.688 1143.1 284.103C1135.88 289.519 1132.27 297.1 1132.27 306.848C1132.27 316.595 1136.06 324.538 1143.64 330.675C1151.22 336.812 1162.23 339.881 1176.67 339.881Z" fill="#121315"/>
<path d="M1372.78 387.536V8.46329H1441.01V387.536H1372.78Z" fill="#121315"/>
<path d="M1494.96 387.536V8.46329H1563.19V387.536H1494.96Z" fill="#121315"/>
</g>
</svg>
